assets/img/braze_icons/fingerprint-01.svg

<svg fill="none" height="24" viewBox="0 0 24 24" width="24" xmlns="http://www.w3.org/2000/svg"><g clip-rule="evenodd" fill="#801ed7" fill-rule="evenodd"><path d="m12 7c-2.76142 0-5 2.23858-5 5 0 .6174.11145 1.2066.31446 1.7499.19332.5173-.06937 1.0934-.58672 1.2867s-1.09345-.0693-1.28676-.5867c-.28541-.7638-.44098-1.5898-.44098-2.4499 0-3.86599 3.13401-7 7-7 .8554 0 1.6771.15389 2.4375.43637.5177.19233.7815.76793.5892 1.28565-.1923.51771-.7679.78149-1.2856.58916-.5409-.20092-1.127-.31118-1.7411-.31118zm5.2763 1.97045c.5177-.19261 1.0934.07086 1.286.58847.2833.76138.4377 1.58438.4377 2.44108 0 3.866-3.134 7-7 7-.8497 0-1.6662-.1518-2.42232-.4307-.51816-.1912-.78328-.7661-.59216-1.2843s.76611-.7833 1.28428-.5922c.5378.1984 1.1202.3072 1.7302.3072 2.7614 0 5-2.2386 5-5 0-.6151-.1106-1.202-.3121-1.7436-.1926-.51759.0708-1.09334.5884-1.28595z"/><path d="m12 3c-1.6714 0-3.23355.45467-4.57287 1.24647-.47542.28106-1.08867.12351-1.36973-.35191s-.12351-1.08867.35191-1.36973c1.63908-.96901 3.5515-1.52483 5.59069-1.52483 6.0751 0 11 4.92487 11 11 0 .0364-.0002.0727-.0005.109-.0054.5523-.4575.9956-1.0097.9902-.5523-.0053-.9956-.4574-.9902-1.0096.0003-.0299.0004-.0597.0004-.0896 0-4.97056-4.0294-9-9-9zm-8.11071 3.06458c.47566.28064.63376.89375.35312 1.36942-.78929 1.33778-1.24241 2.8975-1.24241 4.566 0 4.1923 2.86728 7.7174 6.74926 8.7165.53484.1377.85684.6829.71914 1.2177-.1376.5349-.68281.8569-1.21766.7192-4.74416-1.2211-8.25074-5.5265-8.25074-10.6534 0-2.0357.55392-3.94508 1.51987-5.5823.28064-.47566.89375-.63376 1.36942-.35312zm17.31111 9.98582c.4806.2722.6496.8824.3774 1.3629-1.4516 2.5633-3.9031 4.4871-6.8285 5.2401-.5349.1377-1.0801-.1843-1.2177-.7192-.1377-.5348.1843-1.08.7191-1.2177 2.3893-.6149 4.3975-2.1887 5.5868-4.2887.2721-.4806.8823-.6495 1.3629-.3774z"/><path d="m12 9c.5523 0 1 .44771 1 1v4c0 .5523-.4477 1-1 1s-1-.4477-1-1v-4c0-.55229.4477-1 1-1z"/></g></svg>

<svg width="24" height="24" viewBox="0 0 24 24" fill="none" xmlns="http://www.w3.org/2000/svg">
<path fill-rule="evenodd" clip-rule="evenodd" d="M12 7C9.23858 7 7 9.23858 7 12C7 12.6174 7.11145 13.2066 7.31446 13.7499C7.50778 14.2672 7.24509 14.8433 6.72774 15.0366C6.21039 15.2299 5.63429 14.9673 5.44098 14.4499C5.15557 13.6861 5 12.8601 5 12C5 8.13401 8.13401 5 12 5C12.8554 5 13.6771 5.15389 14.4375 5.43637C14.9552 5.6287 15.219 6.2043 15.0267 6.72202C14.8344 7.23973 14.2588 7.50351 13.7411 7.31118C13.2002 7.11026 12.6141 7 12 7ZM17.2763 8.97045C17.794 8.77784 18.3697 9.04131 18.5623 9.55892C18.8456 10.3203 19 11.1433 19 12C19 15.866 15.866 19 12 19C11.1503 19 10.3338 18.8482 9.57768 18.5693C9.05952 18.3781 8.7944 17.8032 8.98552 17.285C9.17664 16.7668 9.75163 16.5017 10.2698 16.6928C10.8076 16.8912 11.39 17 12 17C14.7614 17 17 14.7614 17 12C17 11.3849 16.8894 10.798 16.6879 10.2564C16.4953 9.73881 16.7587 9.16306 17.2763 8.97045Z" fill="#801ED7"/>
<path fill-rule="evenodd" clip-rule="evenodd" d="M12 3C10.3286 3 8.76645 3.45467 7.42713 4.24647C6.95171 4.52753 6.33846 4.36998 6.0574 3.89456C5.77634 3.41914 5.93389 2.80589 6.40931 2.52483C8.04839 1.55582 9.96081 1 12 1C18.0751 1 23 5.92487 23 12C23 12.0364 22.9998 12.0727 22.9995 12.109C22.9941 12.6613 22.542 13.1046 21.9898 13.0992C21.4375 13.0939 20.9942 12.6418 20.9996 12.0896C20.9999 12.0597 21 12.0299 21 12C21 7.02944 16.9706 3 12 3ZM3.88929 6.06458C4.36495 6.34522 4.52305 6.95833 4.24241 7.434C3.45312 8.77178 3 10.3315 3 12C3 16.1923 5.86728 19.7174 9.74926 20.7165C10.2841 20.8542 10.6061 21.3994 10.4684 21.9342C10.3308 22.4691 9.78559 22.7911 9.25074 22.6534C4.50658 21.4323 1 17.1269 1 12C1 9.9643 1.55392 8.05492 2.51987 6.4177C2.80051 5.94204 3.41362 5.78394 3.88929 6.06458ZM21.2004 16.0504C21.681 16.3226 21.85 16.9328 21.5778 17.4133C20.1262 19.9766 17.6747 21.9004 14.7493 22.6534C14.2144 22.7911 13.6692 22.4691 13.5316 21.9342C13.3939 21.3994 13.7159 20.8542 14.2507 20.7165C16.64 20.1016 18.6482 18.5278 19.8375 16.4278C20.1096 15.9472 20.7198 15.7783 21.2004 16.0504Z" fill="#801ED7"/>
<path fill-rule="evenodd" clip-rule="evenodd" d="M12 9C12.5523 9 13 9.44771 13 10V14C13 14.5523 12.5523 15 12 15C11.4477 15 11 14.5523 11 14V10C11 9.44771 11.4477 9 12 9Z" fill="#801ED7"/>
</svg>
